!!!!SEGMENT: pl-cz--d-ii-31--003_elsner-jozef--msza-b-op-80-graduale-duetto.krn
!!!id: 18xx:188
!!!COM: Elsner, Józef
!!!COM-rism: pe30000957
!!!CDT: 1769/06/01-1854/04/18
!!!CNT: Polish
!!!OTL: Msza B op. 80 - Graduale Duetto
!!!PDT:
!!!SMS-siglum: PL-CZ
!!!SMS-shelfmark: D II-31
!!!NIFC-rismID:
!!!URL-scan: http://repozytorium.nifc.pl/skany/pl-cz-nut--dii-31
!!!ONB-nifc: UWAGA: części Mszy: Kyrie, Gloria, Graduale Duetto, Credo, Offertorium, Sanctus, Benedictus, Agnus Dei
!!!OMD: Andantino
**kern	**kern	**dynam	**kern	**text	**kern	**text
*part3	*part3	*part3	*part2	*part2	*part1	*part1
*staff4	*staff3	*	*staff2	*staff2	*staff1	*staff1
*I"Organo	*	*	*I"Solo Basso albo Alto	*	*I"Solo Soprano albo Tenoro	*
*I'Org.	*	*	*I'B.	*	*I'S.	*
*clefF4	*clefG2	*	*clefF4	*	*clefG2	*
*k[b-e-a-]	*k[b-e-a-]	*	*k[b-e-a-]	*	*k[b-e-a-]	*
*M3/4	*M3/4	*	*M3/4	*	*M3/4	*
!	!	!	!	!	!LO:TX:a:t=Andantino	!
4r	4r	.	4r	.	4b-\	Po-
=1	=1	=1	=1	=1	=1	=1
*	*^	*	*	*	*	*
2.EE-/ 2.E-/	2g/ 2b-/	2.e-\	p	2.r	.	2.ee-\	-wstań-
.	4a-/ 4cc/	.	.	.	.	.	.
=2	=2	=2	=2	=2	=2	=2	=2
2EE-/ 2E-/	2g/ 2b-/	2e-\	.	4r	.	2e-/	-cie
.	.	.	.	4r	.	.	.
4r	4ryy	4r	.	4E-\	Po-	4r	.
=3	=3	=3	=3	=3	=3	=3	=3
2.BBB-/ 2.BB-/	2f/ 2b-/	2d\	.	2.B-\	-wstań-	2.r	.
.	4ryy	4e-\ 4g\	.	.	.	.	.
=4	=4	=4	=4	=4	=4	=4	=4
2BBB-/ 2BB-/	2b-/	2d\ 2f\	.	2BB-/	-cie	4r	.
.	.	.	.	.	.	4r	.
4r	4ryy	4r	.	4D\	Po-	4b-\	Po-
*	*v	*v	*	*	*	*	*
=5	=5	=5	=5	=5	=5	=5
2.EE-/ 2.E-/	4r	.	2E-\	-wstań-	2g/	-wstań-
.	4e-/ 4g/	.	.	.	.	.
.	4f/ 4a-/	.	4F\	-cie	4a-/	-cie
=6	=6	=6	=6	=6	=6	=6
2.EE-/ 2.E-/	4g/ 4b-/	.	4G\	lu-	4b-\	lu-
.	4e-/ 4g/	.	4E-\	-dy	4g/	-dy
.	4a-/ 4cc/	.	4A-\	na	4cc\	na
=7	=7	=7	=7	=7	=7	=7
2.EE-/ 2.E-/	4g/ 4b-/	.	4G\	głos	4b-\	głos
.	8cc\L 8ee-\	.	8c\L	Nie-	8ee-\L	Nie-
.	8b-\ 8dd\	.	8B-\J	.	8dd\J	.
.	8a-\ 8cc\	.	8A-\L	-bios	8cc\L	-bios
.	8g\J 8b-\	.	8G\J	.	8b-\J	.
=8	=8	=8	=8	=8	=8	=8
4DD/ 4D/	8g/L 8b-/	.	8G\L	Pa-	8b-/L	Pa-
.	8f/J 8a-/	.	8F\J	.	8a-/J	.
4EE-/ 4E-/	4e-/ 4g/	.	4E-\	-na,	4g/	-na,
4r	4r	.	4G\	Niech	4b-/	Niech
=9	=9	=9	=9	=9	=9	=9
2.EE-/ 2.E-/	4r	.	2A-\	zie-	2cc\	zie-
.	4a-\ 4cc\	.	.	.	.	.
.	4g\ 4b-\	.	4G\	-mia	4b-\	-mia
=10	=10	=10	=10	=10	=10	=10
2CC/ 2C/	(4g\ 4ee-\	.	4G\	ca-	4ee-\	ca-
.	4e-\) 4g\	.	4E-\	-ła	4g/	-ła
*	*^	*	*	*	*	*
4FF\ 4F\	4a-/	8c\L	.	8C/L	mil-	4a-/	mil-
.	.	8d\J	.	8D/J	.	.	.
*	*v	*v	*	*	*	*	*
=11	=11	=11	=11	=11	=11	=11
!!linebreak:original
2.EE-/ 2.E-/	4e-/ 4g/	.	4E-\	-cze-	4g/	-cze-
.	8a-\L 8cc\	.	8A-\L	-nie	8cc\L	-nie
.	8g\ 8b-\	.	8G\J	.	8b-\J	.
.	8f\ 8a-\	.	8F\L	za-	8a-/L	za-
.	8e-\J 8g\	.	8E-\J	.	8g/J	.
=12	=12	=12	=12	=12	=12	=12
2BB-\ 2B-\	4e-/ 4g/	.	4E-\	-cho-	4g/	-cho-
.	4d/ 4f/	.	4D\	-wa	4f/	-wa
4BBB-/ 4BB-/	4f\ 4a-\ 4dd\	.	8A-\	O-	8dd\	O-
.	.	.	8A-\	-to	8dd\	-to
=13	=13	=13	=13	=13	=13	=13
*	*^	*	*	*	*	*
2.BBB-/ 2.BB-/	4.ee-/	4.e-\ 4.g\	.	2.G\	Bóg	2.ee-\	Bóg
.	8ryy	8g\L 8b-\	.	.	.	.	.
.	4ryy	8e-\ 8g\	.	.	.	.	.
.	.	8g\J 8b-\	.	.	.	.	.
*	*v	*v	*	*	*	*	*
=14	=14	=14	=14	=14	=14	=14
4AAA-X/ 4AA-X/	4f\ 4b-\ 4dd\	.	4F\	ży-	4dd\	ży-
*	*^	*	*	*	*	*
2GGG/ 2GG/	4.ee-/	2e-\ 2b-\	.	4.G\	-wy	4.ee-\	-wy
.	8dd/	.	.	8B-\	przez	8dd\	przez
=15	=15	=15	=15	=15	=15	=15	=15
2AAA-/ 2AA-/	4e-/ 4cc/	4ryy	.	8A-\L	u-	8cc\L	u-
.	.	.	.	8F\J	.	8ff\J	.
.	4.ff/	2f\ 2cc\	.	4.c\	-sta	4.ff\	-sta
4AAAn/ 4AAn/	.	.	.	.	.	.	.
.	8ee-/	.	.	8c\	ka-	8ee-\	ka-
*	*v	*v	*	*	*	*	*
=16	=16	=16	=16	=16	=16	=16
.	.	.	.	.	8qee-/	.
2.BBB-/ 2.BB-/	8r	.	4B-\	-pła-	4dd\	-pła-
.	8f\ 8b-\ 8dd\	.	.	.	.	.
.	4f\ 4b-\ 4dd\	.	8B-\	-na	8dd\	-na
.	.	.	8r	.	8r	.
.	4f\ 4b-\ 4dd\	.	4B-\	o-	4dd\	od-
=17	=17	=17	=17	=17	=17	=17
2.GG\ 2.G\	8r	.	2B-\	-dwie-	2dd\	-wie-
.	8g\ 8b-\ 8dd\	.	.	.	.	.
.	4g\ 4b-\ 4dd\	.	.	.	.	.
.	4g\ 4b-\ 4dd\	.	4D/	-cznej	4b-/	-cznej
=18	=18	=18	=18	=18	=18	=18
2.EE-/ 2.E-/	8r	.	4.E-\	pra-	4.g/	pra-
.	8g\ 8b-\ 8ee-\	.	.	.	.	.
.	4g\ 4b-\ 4ee-\	.	.	.	.	.
.	.	.	8E-\	-wdy	8g/	-wdy
.	4g\ 4b-\ 4ee-\	.	8G\	gło-	8ee-\	gło-
.	.	.	8E-\	-sić	8cc\	-sić
=19	=19	=19	=19	=19	=19	=19
2.FF\ 2.F\	8r	.	2D\	bę-	2b-/	bę-
.	8f\ 8b-\ 8dd\	.	.	.	.	.
.	4f\ 4b-\ 4dd\	.	.	.	.	.
*	*^	*	*	*	*	*
.	4an/ 4cc/	8f\L	.	8F\L	-dzie	4an/	-dzie
.	.	8e-\J	.	8E-\J	.	.	.
*	*v	*v	*	*	*	*	*
=20	=20	=20	=20	=20	=20	=20
.	.	.	.	.	8qcc/	.
2.BBB-/ 2.BB-/	4d/ 4f/ 4b-/	.	4D\	sło-	4b-\	sło-
.	4f/ 4b-/ 4dd/	.	8D\	-wa	8b-\	-wa
.	.	.	8r	.	8r	.
*	*^	*	*	*	*	*
.	4an/ 4cc/	8f\L	.	4r	.	4r	.
.	.	8e-\J	.	.	.	.	.
*	*v	*v	*	*	*	*	*
=21	=21	=21	=21	=21	=21	=21
2BBB-/ 2BB-/	2d/ 2f/ 2b-/	.	4r	.	2.r	.
.	.	.	4r	.	.	.
4r	4r	.	4F\	O	.	.
=22	=22	=22	=22	=22	=22	=22
2.D/	2.B-/ 2.f/ 2.b-/	.	4.B-\	ty	2.r	.
.	.	.	8D\	któ-	.	.
.	.	.	8F\	-re-	.	.
.	.	.	8B-\	-go	.	.
=23	=23	=23	=23	=23	=23	=23
!!linebreak:original
8E-\L	8B-/L 8e-/ 8g/	.	8G\	dzie-	2.r	.
8D\J	8G</J 8Bn/ 8f/	.	8F\	-ła	.	.
4.C\	4.G</ 4.c/ 4.e-/	.	4.E-\	nie	.	.
8AAn\	8F</ 8c/ 8f/	.	8F\	po-	.	.
=24	=24	=24	=24	=24	=24	=24
2BB-\	2F/ 2d/ 2f/	.	8D/L	-ię-	4r	.
.	.	.	8C/J	.	.	.
.	.	.	4BB-/	-te	4r	.
4A-X\	4f/ 4b-/ 4dd/	.	4r	.	4b-\	O
=25	=25	=25	=25	=25	=25	=25
2.G\	2.e-/ 2.b-/ 2.ee-/	.	2.r	.	4.ee-\	ty
.	.	.	.	.	8g/	któ-
.	.	.	.	.	8b-\	-re-
.	.	.	.	.	8ee-\	-go
=26	=26	=26	=26	=26	=26	=26
8A-\L	8e-/L 8a-/ 8cc/	.	2.r	.	8cc\	dzie-
8G\J	8c/J 8en/ 8b-/	.	.	.	8b-\	-ła
4.F\	4.c/ 4.f/ 4.a-/	.	.	.	4.a-/	nie
8D\	8B-/ 8f/ 8b-/	.	.	.	8b-/	po-
=27	=27	=27	=27	=27	=27	=27
2E-\	2B-/ 2g/ 2b-/	.	4r	.	(8g/L	-ję-
.	.	.	.	.	8f/J)	.
.	.	.	4r	.	4e-/	-te
4r	4r	.	4G\	u-	4b-/	u-
=28	=28	=28	=28	=28	=28	=28
2.EE-/ 2.E-/	4r	.	2A-\	-wiel-	2cc\	-wiel-
.	4a-\ 4cc\	.	.	.	.	.
.	4g\ 4b-\	.	4G\	-bia	4b-\	-bia
=29	=29	=29	=29	=29	=29	=29
2CC/ 2C/	4g\ 4ee-\	.	4G\	wszel-	4ee-\	wszel-
.	4g\	.	4E-\	-kie	4g/	-kie
*	*^	*	*	*	*	*
4FF/ 4F/	4a-/	8c\L	.	8C/L	ży-	4a-/	ży-
.	.	8d\J	.	8D/J	.	.	.
*	*v	*v	*	*	*	*	*
=30	=30	=30	=30	=30	=30	=30
4EE-/ 4E-/	4e-/ 4g/	.	4E-\	-ią-	4g/	-ią-
4.AAA-/ 4.AA-/	8a-/L 8cc/	.	8A-\L	-ce	8cc\L	-ce
.	8g/ 8b-/	.	8G\J	.	8b-\J	.
.	8f/ 8a-/	.	8F\L	stwo-	8a-/L	stwo-
8AAAn/ 8AAn/	8e-/J 8g/	.	8E-\J	.	8g/J	.
=31	=31	=31	=31	=31	=31	=31
2BBB-/ 2BB-/	4e-/ 4g/	.	4E-\	-rze-	4g/	-rze-
.	8d/L 8f/	.	4D\	-nie	8f/	-nie
.	8B-/	.	.	.	8ff\	O-
4r	8d/ 8f/	.	4r	.	16dd\LL	-czyść
.	.	.	.	.	16cc\JJ	.
.	8B-/J	.	.	.	8b-\	me
=32	=32	=32	=32	=32	=32	=32
*	*tremolo	*	*	*	*	*
2EE-/ 2E-/	8e-/L 8g/	.	4r	.	(16g\LL	ser-
.	.	.	.	.	16ee-\	.
.	8B-/	.	.	.	16b-\	.
.	.	.	.	.	16a-\JJ	.
.	8e-/ 8g/	.	8r	.	8g/)	-ce
.	8B-/	.	(8B-\	O-	8r	.
4r	8e-/ 8g/	.	16G\LL	-czyść	4r	.
.	.	.	16F\JJ	.	.	.
.	8B-/J	.	8E-\	me	.	.
=33	=33	=33	=33	=33	=33	=33
2BBB-/ 2BB-/	8d/L 8f/	.	16D\LL)	ser-	4r	.
.	.	.	16B-\	.	.	.
.	8B-/	.	16F\	.	.	.
.	.	.	16E-\JJ	.	.	.
.	8d/ 8f/	.	8D\	-ce	4b-\	by
.	8B-/	.	8r	.	.	.
4r	8d/ 8f/	.	4r	.	4a-\	twe
.	8B-/J	.	.	.	.	.
=34	=34	=34	=34	=34	=34	=34
!!pagebreak:original
2EE-/ 2E-/	8e-/L 8g/	.	4r	.	2g/	pra-
.	8B-/	.	.	.	.	.
.	8e-/ 8g/	.	4E-\	by	.	.
.	8B-/J	.	.	.	.	.
*	*Xtremolo	*	*	*	*	*
4DD/ 4D/	8f/L 8b-/	.	4D\	twe	4b-/	-wdy
.	8B-/J	.	.	.	.	.
=35	=35	=35	=35	=35	=35	=35
2CC/ 2C/	8e-/L 8b-/	.	2C/	praw-	(4b-\	Swię-
.	8c/	.	.	.	.	.
.	8e-/ 8an/	.	.	.	4an\)	.
.	8c/J	.	.	.	.	.
4BBB-/ 4BB-/	8d/L 8b-/	.	4BB-/	-dy	4b-\	-te
.	8f/J	.	.	.	.	.
=36	=36	=36	=36	=36	=36	=36
4AAA-X/ 4AA-X/	8b-/L 8dd/	.	8B-\L	Swię-	4dd\	Swię-
.	8f/J	.	8A-X\J	.	.	.
4GGG/ 4GG/	8b-/L 8ee-/	.	4G\	-te	4ee-\	-te
.	8e-/	.	.	.	.	.
4GG\ 4G\	8b-/ 8ee-/	.	4G\	zna-	8ee-\L	zna-
.	8e-/J	.	.	.	8dd\J	.
=37	=37	=37	=37	=37	=37	=37
4AA-\ 4A-\	8cc/L 8ee-/	.	(4A-\	-laz-	(4cc\	-laz-
.	8e-/J	.	.	.	.	.
4FF\ 4F\	8a-/L 8ff/	.	4c\)	.	4aa-\)	.
.	8f/	.	.	.	.	.
[>4AA-\ [4A-\	8cc/ 8ff/	.	8A-\L	-ły	4ff\	-ły
.	8f/J	.	8c\J	.	.	.
=38	=38	=38	=38	=38	=38	=38
4AA-\] 4A-\]	8b-/L 8dd/	.	8B-\L	go-	4dd\	go-
.	8f/J	.	8A-\J	.	.	.
4GG\ 4A-\	8b-/L 8ee-/	.	4G\	-dne	4ee-\	-dne
.	8e-/	.	.	.	.	.
4GGG/ 4GG/	8b-/ 8ee-/	.	4G\	u	8ee-\L	u-
.	8e-/J	.	.	.	8dd\J	.
=39	=39	=39	=39	=39	=39	=39
4AAA-/ 4AA-/	8cc/L 8ee-/	.	4A-\	Cie-	4cc\	-Cie-
.	8e-/	.	.	.	.	.
4GGG/ 4GG/	8a-/ 8ff/	.	4c\	-bie	4aa-\	-bie
.	8f/	.	.	.	.	.
4AAA-/ 4AA-/	8cc/ 8ff/	.	8A-\L	schro-	4ff\	schro-
.	8f/J	.	8c\J	.	.	.
=40	=40	=40	=40	=40	=40	=40
2.BBB-/ 2.BB-/	8g/L 8ee-/	.	2G\	-nie-	2ee-\	-nie-
.	8e-/	.	.	.	.	.
.	8g/ 8ee-/	.	.	.	.	.
.	8e-/	.	.	.	.	.
.	8f/ 8a-/ 8dd/	.	(8F\L	.	(8dd\L	.
.	8e-/J 8g/ 8ee-/	.	8G\J)	.	8ee-\J)	.
=41	=41	=41	=41	=41	=41	=41
*	*^	*	*	*	*	*
2CC/ 2C/;>	2an/ 2ee-/	2e-;>\	.	2An\	-nie	2ee-;\	-nie
4r	4r	4ryy	.	4F\	O	4r	.
*	*v	*v	*	*	*	*	*
=42	=42	=42	=42	=42	=42	=42
2.D\	2.B-/ 2.f/ 2.b-/	.	4.B-\	ty	2.r	.
.	.	.	8D\	któ-	.	.
.	.	.	8F\	-re-	.	.
.	.	.	8B-\	-go	.	.
=43	=43	=43	=43	=43	=43	=43
8E-\L	8B-/L 8e-/ 8g/	.	8G\	dzie-	2.r	.
8D\J	8G</J 8Bn/ 8f/	.	8F\	-ła	.	.
4.C\	4.G</ 4.c/ 4.e-/	.	4.E-\	nie	.	.
8AAn\	8F</ 8c/ 8f/	.	8F\	po-	.	.
=44	=44	=44	=44	=44	=44	=44
*^	*	*	*	*	*	*
2BB-\	2F/	2d/ 2f/	.	8D/L	-ięte	4r	.
.	.	.	.	8C/J	.	.	.
.	.	.	.	4BB-/	.	4r	.
4A-X\	4ryy	4f/ 4b-/ 4dd/	.	4r	.	4b-/	O
*v	*v	*	*	*	*	*	*
=45	=45	=45	=45	=45	=45	=45
!!linebreak:original
*	*^	*	*	*	*	*
2.G\	2.e-/ 2.g/ 2.cc/	2.e-\	.	2.r	.	4.ee-\	ty
.	.	.	.	.	.	8g/	które-
.	.	.	.	.	.	8b-/	.
.	.	.	.	.	.	8ee-\	-go
*	*v	*v	*	*	*	*	*
=46	=46	=46	=46	=46	=46	=46
8A-\L	8e-/L 8a-/ 8cc/	.	2.r	.	8cc\	dzie-
8G\J	8c/J 8en/ 8b-/	.	.	.	8b-\	-ła
4.F\	4.c/ 4.f/ 4.a-/	.	.	.	4.a-/	nie
8D\	8B-/ 8f/ 8b-/	.	.	.	8b-/	po-
=47	=47	=47	=47	=47	=47	=47
2E-\	2B-/ 2g/ 2b-/	.	4r	.	8g/L	-ię-
.	.	.	.	.	8f/J	.
.	.	.	4r	.	4e-/	-te
4r	4r	.	4G\	u-	4b-/	u-
=48	=48	=48	=48	=48	=48	=48
2.EE-/ 2.E-/	4r	.	2A-\	-wielbia	2cc\	-wiel-
.	4a-\ 4cc\	.	.	.	.	.
.	4g\ 4b-\	.	4G\	.	4b-\	-bia
=49	=49	=49	=49	=49	=49	=49
*	*^	*	*	*	*	*
2CC/ 2C/	4g\ 4ee-\	4ryy	.	4G\	wszel-	4ee-\	wszel-
.	4e-\ 4g\	4ryy	.	4E-\	-kie	4g/	-kie
4FF/ 4F/	8c\L	4a-/	.	8C\L	ży-	4a-/	ży-
.	8d\J	.	.	8D\J	.	.	.
*	*v	*v	*	*	*	*	*
=50	=50	=50	=50	=50	=50	=50
4EE-/ 4E-/	4e-/ 4g/	.	4E-\	-ią-	4g/	-ią-
4.AAA-/ 4.AA-/	8a-\L 8cc\	.	8A-\L	-ce	8cc\L	-ce
.	8g\ 8b-\	.	8G\J	.	8b-\J	.
.	8f\ 8a-\	.	8F\L	stwo-	8a-/L	stwo-
8AAAn/ 8AAn/	8e-\J 8g\	.	8E-\J	.	8g/J	.
=51	=51	=51	=51	=51	=51	=51
2BBB-/ 2BB-/	4e-/ 4g/	.	4E-\	-rze-	4g/	-rze-
.	8d/L 8f/	.	4D\	-nie	8f/	-nie
.	8B-/	.	.	.	8ff\	O-
4r	8d/ 8f/	.	4r	.	16dd\LL	-czyść
.	.	.	.	.	16cc\JJ	.
.	8B-/J	.	.	.	8b-\	me
=52	=52	=52	=52	=52	=52	=52
*	*tremolo	*	*	*	*	*
2EE-/ 2E-/	8e-/L 8g/	.	4r	.	(16g\LL	serce
.	.	.	.	.	16ee-\	.
.	8B-/	.	.	.	16b-\	.
.	.	.	.	.	16a-\JJ	.
.	8e-/ 8g/	.	8r	.	8g/)	.
.	8B-/	.	8B-\	O-	8r	.
4r	8e-/ 8g/	.	(16G\LL	-czyść	4r	.
.	.	.	16F\JJ	.	.	.
.	8B-/J	.	8E-\)	me	.	.
=53	=53	=53	=53	=53	=53	=53
2BBB-/ 2BB-/	8d/L 8f/	.	(16D\LL	serce	4r	.
.	.	.	16B-\	.	.	.
.	8B-/	.	16F\	.	.	.
.	.	.	16E-\JJ	.	.	.
.	8d/ 8f/	.	8D/)	.	4b-/	by
.	8B-/	.	8r	.	.	.
4r	8d/ 8f/	.	4r	.	4a-/	twe
.	8B-/J	.	.	.	.	.
=54	=54	=54	=54	=54	=54	=54
2EE-/ 2E-/	8e-/L 8g/	.	4r	.	2g/	pra-
.	8B-/	.	.	.	.	.
.	8e-/ 8g/	.	4E-\	by	.	.
.	8B-/J	.	.	.	.	.
*	*Xtremolo	*	*	*	*	*
4DD/ 4D/	8f/L 8b-/	.	4D\	twe	4b-/	-wdy
.	8B-/J	.	.	.	.	.
=55	=55	=55	=55	=55	=55	=55
2CC/ 2C/	8e-/L 8b-/	.	2C/	pra-	(4b-/	Swię-
.	8c/	.	.	.	.	.
.	8e-/ 8an/	.	.	.	4an/	.
.	8c/J	.	.	.	.	.
4BBB-/ 4BB-/	8d/L 8b-/	.	4BB-/	-wdy	4b-/)	-te
.	8f/J	.	.	.	.	.
=56	=56	=56	=56	=56	=56	=56
!!linebreak:original
4AAA-/ 4AA-/	8b-\L 8dd\	.	8B-\L	swię-	4dd\	swię-
.	8f\J	.	8A-X\J	.	.	.
4GGG/ 4GG/	8b-\L 8ee-\	.	4G\	-te	4ee-\	-te
.	8e-\	.	.	.	.	.
4GG\ 4G\	8b-\ 8ee-\	.	4G\	zna-	8ee-\L	zna-
.	8e-\J	.	.	.	8dd\J	.
=57	=57	=57	=57	=57	=57	=57
4AA-\ 4A-\	8cc\L 8ee-\	.	(4A-\	-la-	(4cc\	-la-
.	8e-\J	.	.	.	.	.
4FF\ 4F\	8a-\L 8ff\	.	4c\)	.	4aa-\)	.
.	8f\	.	.	.	.	.
(4AA-\ 4A-\	8cc\ 8ff\	.	8A-\L	-zły	4ff\	-zły
.	8f\J	.	8c\J	.	.	.
=58	=58	=58	=58	=58	=58	=58
4AA-\) 4A-\	8b-\L 8dd\	.	8B-\L	go-	4dd\	go-
.	8f\J	.	8A-\J	.	.	.
4GG\ 4G\	8b-\L 8ff\	.	4G\	-dne	4ee-\	-dne
.	8e-\	.	.	.	.	.
4GGG/ 4GG/	8b-\ 8ff\	.	4G\	u	8ee-\L	u
.	8e-\J	.	.	.	8dd\J	.
=59	=59	=59	=59	=59	=59	=59
4AAA-/ 4AA-/	8cc\L 8ee-\	.	4A-\	Cie-	4cc\	Cie-
.	8e-\J	.	.	.	.	.
4FFF/ 4FF/	8a-\L 8ff\	.	4c\	-bie	4aa-\	-bie
.	8f\	.	.	.	.	.
4AAA-/ 4AA-/	8cc\ 8ff\	.	8A-\L	schro-	4ff\	schr-
.	8f\J	.	8c\J	.	.	.
=60	=60	=60	=60	=60	=60	=60
4.BBB-/ 4.BB-/	8g\L 8ee-\	.	4.G\	-nie-	4.ee-\	-nie
.	8e-\J	.	.	.	.	.
.	8g\ 8ee-\	.	.	.	.	.
8r	8r	.	16F\LL	.	16dd\LL	.
.	.	.	16G\JJ	.	16ee-\JJ	.
4r	4r	.	16F\LL	.	16dd\LL	.
.	.	.	16G\	.	16ee-\	.
.	.	.	16A-\	.	16ff\	.
.	.	.	16G\JJ	.	16ee-\JJ	.
=61	=61	=61	=61	=61	=61	=61
4.BBB-/ 4.BB-/	8ee-\L 8gg\	.	4.B-\	.	4.gg\	.
.	8b-\J	.	.	.	.	.
.	8ee-\ 8gg\	.	.	.	.	.
8r	8r	.	16c\LL	.	16aa-\LL	.
.	.	.	16B-\JJ	.	16gg\JJ	.
4r	4r	.	8A-\L	-nie-	8ff\L	.
.	.	.	16B-\L	.	16gg\L	nie
.	.	.	16A-\JJ	.	16ff\JJ	.
=62	=62	=62	=62	=62	=62	=62
8BBB-/ 8BB-/	8g/ 8b-/	.	16G\LL	-schronie-	16ee-\LL	schro-
.	.	.	16B-\	.	16dd\	.
8r	8r	.	16A-\	.	16cc\	.
.	.	.	16G\JJ	.	16b-\JJ	.
4r	4r	.	16F#X\LL	.	16an/LL	-nie-
.	.	.	16G\	.	16b-/	.
.	.	.	16A-\	.	16cc/	.
.	.	.	16G\JJ	.	16b-/JJ	.
8BBB-/ 8BB-/ 8A-/	8d/ 8f/	.	16Fn\LL	.	16a-X/LL	.
.	.	.	16E-\	.	16g/	.
8r	8r	.	16D\	.	16f/	.
.	.	.	16E-\JJ	.	16g/JJ	.
=63	=63	=63	=63	=63	=63	=63
*^	*	*	*	*	*	*
4G/ 4B-/	2.EE-\ [>2.E-\	4e-/	.	2E-\	-nie	2e-/	-nie
2ryy	.	4B-/ 4e-/ 4g/	.	.	.	.	.
.	.	4B-/ 4d/ 4f/	.	4r	.	4r	.
.	.	8qqA-/	.	.	.	.	.
*v	*v	*	*	*	*	*	*
=64	=64	=64	=64	=64	=64	=64
2.EE-/ 2.E-/]	4G/ 4B-/ 4e-/	.	2.r	.	2.r	.
.	4B-/ 4e-/ 4g/	.	.	.	.	.
.	4B-/ 4d/ 4f/	.	.	.	.	.
.	8qqA-/	.	.	.	.	.
=65	=65	=65	=65	=65	=65	=65
*^	*	*	*	*	*	*
4E-/	4EE-\	[2.G/ [>2.B-/ [2.e-/	.	2.r	.	2.r	.
4BB-/	4ryy	.	.	.	.	.	.
4GG/	4ryy	.	.	.	.	.	.
*v	*v	*	*	*	*	*	*
=66	=66	=66	=66	=66	=66	=66
2EE-/	2G/] 2B-/] 2e-/]	.	4r	.	4r	.
.	.	.	4r	.	4r	.
==	==	==	==	==	==	==
*-	*-	*-	*-	*-	*-	*-
!!!system-decoration: s1,s2{(s3,s4)}
!!!RDF**kern: > = above
!!!RDF**kern: < = below
!!!ENC: Leszek Kubiak
!!!END: 2020-04-03
!!!ENC: Berenika Jozajtis
!!!END: 2020-03-04
